X:1
T:Title
%%score { ( 1 2 5 ) | ( 3 4 ) }
L:1/8
Q:1/4=100
M:6/8
K:Db
V:1 treble nm="Grand Piano"
V:2 treble 
V:5 treble 
V:3 treble 
V:4 treble 
V:1
 z3 c3 | z3 B3 | BAF z A,D | G6 | z3 c3 | EGc B=AB | z [EG][GB] z [EG][GB] | %7
 z FF[K:bass] z[K:treble] .F2 | z3 =G3 | z3 F3 | .E3 .=G3 | [Ec]6 | [E,E]F=G z DD | %13
 C-[C-F][C=G] z EE | [DF]Bc [Fd]cB | [CA]6 | [DF]3- [DF]G=G | [FA]3- [FA]BF | [FA]3 [_F=G]2 G | %19
 [EG]6 | [CE]2 [DF] [EG]FE | [DF]2 [EG] [FA]AB | [Ec]3 [DB]3 | [CA]6 | .[DF]6 | %25
 [FA]-[DF-A-][DF-A-] [DFA]Bc | [Ae]3 [Ad]2 [Ac] | [GB]6 | B3 d3 | [A,DFA]FG ABd | d3 c3 | d6 |] %32
V:2
 FAd z FF | FAc z FF | z3 .C3 | z CC z CC | EGd z GG | x6 | .[Cc]3 .[Cc]3 | %7
 [A,A]6[K:bass][K:treble] | D6 | FEc z .A,2 | D-[=G,B,D-][G,B,D-F] D-[B,D][Fd] | z [A,C][A,C] z3 | %12
 D3 [F,F]3 | .[E,E]3 F3 | x6 | x6 | x6 | x6 | x6 | x6 | x6 | x6 | x6 | x6 | A,A,A, A,G=G | .D3 z3 | %26
 x6 | z DD .D3 | z _FF z BB | x6 | z BB z AA | z [FA][FA] .[FA]3 |] %32
V:3
 [F,D][A,F][DF] z DD | [F,D][A,F][CF] z DD | z [A,D][A,D] G,2 [F,A,] | z A,A, z A,A, | %4
 [E,C][G,E][K:treble][DEG] z EE | [E,C][G,E][K:treble][CEG] [B,EG][K:bass]=A,B, | %6
 z2 [B,E] z2 [B,E] | z DD z[K:treble] DA | B,,E,E, E,,E,E, | A,,[E,A,][E,A,] E,,E,A, | %10
 B,,E,E, E,,[E,=G,][E,G,B,] | A,,E,E, F,=D,E, | z F,=G, z _G,G, | z F,=G, z CC | z DE z ED | %15
 A,B,F, G,E,A, | D,F,B, A,E_F | D,F,A,[K:treble] DFD | A,,A,D .B,2 _F | A,,A,B, CB,A, | %20
 A,,E,A, CDC | D,F,A,[K:treble] DF_F | E,CA, .[E,=G,]3 | A,B,F, G,E,A, | D,D,D, D,E_F | %25
 D,D,D, D,[K:treble]FF | [F,A,]3 [F,D]3 | [G,D]G,G, .G,3 | z DD z [D_F][DF] | A,,F,G, A,B,D | %30
 z[K:treble] [EG][EG][K:bass] z[K:treble] GG | D,A,F, .D,3 |] %32
V:4
 z3 C3 | z3 B,3 | F,3 z3 | E,3 A,,3 | z3[K:treble] C3 | x2[K:treble] x2[K:bass] x2 | %6
 [E,,E,]3 [A,,,A,,]3 | [D,,D,]3 A,,,3[K:treble] | x6 | x6 | x6 | x6 | B,,3 E,,3 | A,,3 [=A,,F,]3 | %14
 [B,,F,]3 [E,=G,]3 | x6 | x6 | x3[K:treble] x3 | x6 | x6 | x6 | x3[K:treble] x3 | x6 | x6 | x6 | %25
 x4[K:treble] x2 | x6 | x6 | [=G,,=G,]3 [G,,G,]3 | x6 | %30
 [E,,E,]3[K:treble][K:bass] [A,,A,]3[K:treble] | x6 |] %32
V:5
 x6 | x6 | x6 | x6 | x6 | x6 | x6 | z3[K:bass] A,,3[K:treble] | =G[=G,B,F][G,B,E] z [G,B,][G,B,] | %9
 C6 | x6 | x6 | x6 | x6 | x6 | x6 | x6 | x6 | x6 | x6 | x6 | x6 | x6 | x6 | x6 | x6 | x6 | x6 | %28
 x6 | x6 | x6 | x6 |] %32

